client/src/assets/Driverdetails.svg

<svg width="24" height="24" viewBox="0 0 24 24" fill="none" xmlns="http://www.w3.org/2000/svg">
<path d="M18.92 5.01C18.72 4.42 18.16 4 17.5 4H6.5C5.84 4 5.29 4.42 5.08 5.01L3 11V19C3 19.55 3.45 20 4 20H5C5.55 20 6 19.55 6 19V18H18V19C18 19.55 18.45 20 19 20H20C20.55 20 21 19.55 21 19V11L18.92 5.01ZM6.85 6H17.14L18.18 9H5.81L6.85 6ZM19 16H5V11.34L5.12 11H18.89L19 11.34V16Z" fill="black"/>
<path d="M7.5 15C8.32843 15 9 14.3284 9 13.5C9 12.6716 8.32843 12 7.5 12C6.67157 12 6 12.6716 6 13.5C6 14.3284 6.67157 15 7.5 15Z" fill="black"/>
<path d="M16.5 15C17.3284 15 18 14.3284 18 13.5C18 12.6716 17.3284 12 16.5 12C15.6716 12 15 12.6716 15 13.5C15 14.3284 15.6716 15 16.5 15Z" fill="black"/>
</svg>

<?xml version="1.0" encoding="utf-8"?>
<!-- Generator: Adobe Illustrator 25.2.3, SVG Export Plug-In . SVG Version: 6.00 Build 0)  -->
<svg version="1.1" id="Layer_1" xmlns="http://www.w3.org/2000/svg" xmlns:xlink="http://www.w3.org/1999/xlink" x="0px" y="0px"
	 viewBox="0 0 24 24" style="enable-background:new 0 0 24 24;" xml:space="preserve">
<style type="text/css">
	.st0{fill:#FBBC05;}
</style>
<path class="st0" d="M18.9,5c-0.2-0.6-0.8-1-1.4-1h-11C5.8,4,5.3,4.4,5.1,5L3,11v8c0,0.5,0.5,1,1,1h1c0.6,0,1-0.5,1-1v-1h12v1
	c0,0.5,0.5,1,1,1h1c0.5,0,1-0.5,1-1v-8L18.9,5z M6.8,6h10.3l1,3H5.8L6.8,6z M19,16H5v-4.7L5.1,11h13.8l0.1,0.3V16z"/>
<path class="st0" d="M7.5,15C8.3,15,9,14.3,9,13.5S8.3,12,7.5,12S6,12.7,6,13.5S6.7,15,7.5,15z"/>
<path class="st0" d="M16.5,15c0.8,0,1.5-0.7,1.5-1.5S17.3,12,16.5,12S15,12.7,15,13.5S15.7,15,16.5,15z"/>
</svg>
